X:95
T:Hearty Boys of Ballymoate, The
R:jig
Z:Transcribed by Dave Marshall
M:6/8
K:D
|: d2A BAB | def a3 | aba f2e | dBB gfe |
d2A BAB | def a3 | aba f2e | fdd d3 :|
|: faa fab | afe f3|aba f2e | dBB gfe | 
d2A BAB|def a3 | aba f2e | fdd d3 :|
